static/assets/images/shapes/link-orange.svg

<svg width="448" height="54" viewBox="0 0 448 54" fill="none" xmlns="http://www.w3.org/2000/svg">
<g clip-path="url(#clip0_678_8716)">
<path d="M34.44 49.2078C34.24 36.9678 34.08 18.2778 34 6.09778V4.92778C34.02 3.28778 35.56 1.85778 37.16 1.89778L39.43 1.79778L43.96 1.59778C54.76 1.16778 72.88 0.417782 83.63 0.0277823C85.56 -0.212218 87.53 1.12778 87.93 3.07778C90.78 18.8678 91.92 34.9678 91.12 51.0178L88.59 48.7678L129.37 41.3478C174.41 33.3978 222.43 24.6078 267.39 17.3678C270.16 17.1378 272.96 17.4378 275.67 17.9978C277.65 18.3478 281.38 19.0578 283.31 19.4078C290.07 20.6678 306.96 23.8678 313.86 25.1578L324.04 27.0778C326.17 27.3978 331.58 28.7978 333.88 28.6078C341.74 27.7778 351.66 26.4478 359.54 25.5978C363.14 25.2178 366.73 26.1078 370.11 27.2578C384.94 31.8578 399.85 36.4078 414.64 41.1378C397.95 36.9478 381.37 32.0278 364.66 27.9778C361.92 27.4278 357.48 28.2778 354.7 28.6978L344.45 30.2078C342.44 30.4878 338.62 31.0778 336.76 31.3378C334.16 31.8778 331.16 31.8078 328.56 31.2378C319.53 29.7678 302.03 26.7978 292.79 25.2578L272.45 21.8278C270.08 21.5378 267.73 21.6178 265.38 22.0678C208.25 32.5378 146.76 43.2978 89.32 53.0278C87.98 53.2778 86.71 52.1378 86.81 50.7778C87.71 35.8378 87.13 20.7778 84.88 5.95778L84.55 3.80778C84.53 3.65778 84.41 3.50778 84.25 3.44778C80.92 3.36778 65.69 3.66778 62.17 3.66778L44.02 3.84778L39.48 3.87778L37.21 3.88778C36.45 3.83778 35.94 4.34778 35.86 5.02778C35.39 17.6478 34.99 36.5378 34.44 49.2078Z" fill="#E47200"/>
</g>
<defs>
<clipPath id="clip0_678_8716">
<rect width="448" height="53.6" fill="white"/>
</clipPath>
</defs>
</svg>

<svg xmlns="http://www.w3.org/2000/svg" width="448" height="54" fill="none"><g clip-path="url(#a)"><path fill="#E47200" d="M34.44 49.208c-.2-12.24-.36-30.93-.44-43.11v-1.17c.02-1.64 1.56-3.07 3.16-3.03l2.27-.1 4.53-.2c10.8-.43 28.92-1.18 39.67-1.57 1.93-.24 3.9 1.1 4.3 3.05 2.85 15.79 3.99 31.89 3.19 47.94l-2.53-2.25 40.78-7.42c45.04-7.95 93.06-16.74 138.02-23.98 2.77-.23 5.57.07 8.28.63 1.98.35 5.71 1.06 7.64 1.41 6.76 1.26 23.65 4.46 30.55 5.75l10.18 1.92c2.13.32 7.54 1.72 9.84 1.53 7.86-.83 17.78-2.16 25.66-3.01 3.6-.38 7.19.51 10.57 1.66 14.83 4.6 29.74 9.15 44.53 13.88-16.69-4.19-33.27-9.11-49.98-13.16-2.74-.55-7.18.3-9.96.72l-10.25 1.51c-2.01.28-5.83.87-7.69 1.13-2.6.54-5.6.47-8.2-.1-9.03-1.47-26.53-4.44-35.77-5.98l-20.34-3.43c-2.37-.29-4.72-.21-7.07.24-57.13 10.47-118.62 21.23-176.06 30.96-1.34.25-2.61-.89-2.51-2.25.9-14.94.32-30-1.93-44.82l-.33-2.15a.47.47 0 0 0-.3-.36c-3.33-.08-18.56.22-22.08.22l-18.15.18-4.54.03-2.27.01c-.76-.05-1.27.46-1.35 1.14-.47 12.62-.87 31.51-1.42 44.18"/></g><defs><clipPath id="a"><path fill="#fff" d="M0 0h448v53.6H0z"/></clipPath></defs></svg>
